public/images/home-image.svg

<svg width="89" height="89" viewBox="0 0 89 89" fill="none" xmlns="http://www.w3.org/2000/svg">
<g id="home-img">
<path id="Vector" d="M73.53 16.0018H15.04C12.9247 16.0018 11.21 17.7166 11.21 19.8318V78.3218C11.21 80.4371 12.9247 82.1518 15.04 82.1518H73.53C75.6452 82.1518 77.36 80.4371 77.36 78.3218V19.8318C77.36 17.7166 75.6452 16.0018 73.53 16.0018Z" fill="white"/>
<path id="Vector_2" d="M73.53 83.1618H15.04C12.37 83.1618 10.21 80.9918 10.21 78.3318V19.8418C10.21 17.1718 12.38 15.0118 15.04 15.0118H73.52C76.19 15.0118 78.35 17.1818 78.35 19.8418V78.3218C78.35 80.9918 76.18 83.1518 73.52 83.1518L73.53 83.1618ZM15.04 17.0018C13.48 17.0018 12.21 18.2718 12.21 19.8318V78.3118C12.21 79.8718 13.48 81.1418 15.04 81.1418H73.52C75.08 81.1418 76.35 79.8718 76.35 78.3118V19.8418C76.35 18.2818 75.08 17.0118 73.52 17.0118H15.04V17.0018Z" fill="#13706D"/>
<path id="Vector_3" d="M65.17 23.4418H23.55C21.2801 23.4418 19.44 25.2819 19.44 27.5518V46.7418C19.44 49.0117 21.2801 50.8518 23.55 50.8518H65.17C67.4399 50.8518 69.28 49.0117 69.28 46.7418V27.5518C69.28 25.2819 67.4399 23.4418 65.17 23.4418Z" fill="#AFE0DD"/>
<path id="Vector_4" d="M65.16 51.8518H23.55C20.73 51.8518 18.44 49.5618 18.44 46.7418V27.5618C18.44 24.7418 20.73 22.4518 23.55 22.4518H65.16C67.98 22.4518 70.27 24.7418 70.27 27.5618V46.7418C70.27 49.5618 67.98 51.8518 65.16 51.8518ZM23.55 24.4418C21.83 24.4418 20.44 25.8418 20.44 27.5518V46.7318C20.44 48.4518 21.84 49.8418 23.55 49.8418H65.16C66.88 49.8418 68.27 48.4418 68.27 46.7318V27.5518C68.27 25.8318 66.87 24.4418 65.16 24.4418H23.55Z" fill="#13706D"/>
<path id="Vector_5" d="M68.8 62.8818H19.89C18.9898 62.8818 18.26 63.6116 18.26 64.5118V64.5218C18.26 65.4221 18.9898 66.1518 19.89 66.1518H68.8C69.7002 66.1518 70.43 65.4221 70.43 64.5218V64.5118C70.43 63.6116 69.7002 62.8818 68.8 62.8818Z" fill="#AFE0DD"/>
<path id="Vector_6" d="M68.8 56.6718H19.89C18.9898 56.6718 18.26 57.4016 18.26 58.3018V58.3118C18.26 59.212 18.9898 59.9418 19.89 59.9418H68.8C69.7002 59.9418 70.43 59.212 70.43 58.3118V58.3018C70.43 57.4016 69.7002 56.6718 68.8 56.6718Z" fill="#AFE0DD"/>
<path id="Vector_7" d="M50.18 69.1018H19.89C18.9898 69.1018 18.26 69.8316 18.26 70.7318V70.7418C18.26 71.642 18.9898 72.3718 19.89 72.3718H50.18C51.0802 72.3718 51.81 71.642 51.81 70.7418V70.7318C51.81 69.8316 51.0802 69.1018 50.18 69.1018Z" fill="#AFE0DD"/>
<path id="Vector_8" d="M23.49 23.4418H39.51V34.3318C39.51 36.1318 38.05 37.5818 36.26 37.5818H20.44V26.4918C20.44 24.8018 21.81 23.4418 23.49 23.4418Z" fill="#13706D"/>
<path id="Vector_9" d="M36.23 32.3218L33.49 29.4318C33.3 29.2318 33.04 29.1218 32.77 29.1218C32.5 29.1218 32.23 29.2318 32.05 29.4318L31.52 29.9818L29.32 27.6718C29.13 27.4718 28.87 27.3618 28.6 27.3618C28.35 27.3418 28.06 27.4718 27.87 27.6818L23.72 32.1218C23.34 32.5218 23.36 33.1618 23.77 33.5318C23.96 33.7118 24.21 33.8018 24.45 33.8018C24.72 33.8018 24.98 33.6918 25.18 33.4818L28.61 29.8218L30.15 31.4418L29.31 32.3218C28.93 32.7218 28.95 33.3518 29.35 33.7318C29.75 34.1118 30.38 34.1018 30.76 33.6918L32.78 31.5618L34.8 33.6818C35 33.8918 35.26 33.9918 35.52 33.9918C35.77 33.9918 36.02 33.9018 36.21 33.7118C36.61 33.3318 36.63 32.7018 36.25 32.3018L36.23 32.3218Z" fill="white"/>
<path id="Vector_10" d="M34.62 28.8118C33.88 28.8118 33.27 28.2118 33.27 27.4618C33.27 26.7118 33.87 26.1118 34.62 26.1118C35.37 26.1118 35.97 26.7118 35.97 27.4618C35.97 28.2118 35.37 28.8118 34.62 28.8118Z" fill="white"/>
<path id="Vector_11" d="M70.23 9.16179L71.83 19.5918C72.15 21.6918 73.76 23.3718 75.84 23.8018L83 25.2518C84.04 25.4618 84.04 26.9418 83 27.1518L75.84 28.6018C73.75 29.0218 72.15 30.7018 71.83 32.8118L70.23 43.2418C70.06 44.3418 68.48 44.3418 68.31 43.2418L66.71 32.8118C66.39 30.7118 64.78 29.0318 62.7 28.6018L55.54 27.1518C54.5 26.9418 54.5 25.4618 55.54 25.2518L62.7 23.8018C64.79 23.3818 66.39 21.7018 66.71 19.5918L68.31 9.16179C68.48 8.06179 70.06 8.06179 70.23 9.16179Z" fill="white"/>
<path id="Vector_12" d="M69.27 45.0518C68.27 45.0518 67.47 44.3618 67.32 43.3818L65.72 32.9518C65.46 31.2718 64.17 29.9118 62.5 29.5718L55.34 28.1218C54.41 27.9318 53.76 27.1418 53.76 26.1918C53.76 25.2418 54.41 24.4518 55.34 24.2618L62.5 22.8118C64.17 22.4718 65.46 21.1118 65.72 19.4318L67.32 9.00179C67.47 8.02179 68.27 7.33179 69.27 7.33179C70.27 7.33179 71.07 8.02179 71.22 9.00179L72.82 19.4318C73.08 21.1118 74.37 22.4718 76.04 22.8118L83.2 24.2618C84.13 24.4518 84.78 25.2418 84.78 26.1918C84.78 27.1418 84.13 27.9318 83.2 28.1218L76.04 29.5718C74.37 29.9118 73.08 31.2718 72.82 32.9518L71.22 43.3818C71.07 44.3618 70.27 45.0518 69.27 45.0518ZM69.24 9.30179L67.7 19.7418C67.31 22.2518 65.38 24.2718 62.9 24.7718L55.74 26.2218L62.9 27.6118C65.39 28.1118 67.32 30.1418 67.7 32.6418L69.3 43.0718L70.85 32.6418C71.24 30.1318 73.17 28.1118 75.65 27.6118L82.81 26.1618L75.65 24.7718C73.16 24.2718 71.23 22.2418 70.85 19.7418L69.25 9.31179V9.29179L69.24 9.30179Z" fill="#13706D"/>
<path id="Vector_13" d="M49.18 4.41181L50.3 7.41181C50.74 8.59181 51.59 9.57181 52.7 10.1818L54.37 11.0918C54.9 11.3818 54.9 12.1418 54.37 12.4318L52.7 13.3418C51.59 13.9518 50.74 14.9318 50.3 16.1118L49.18 19.1118C48.93 19.7718 48 19.7718 47.75 19.1118L46.63 16.1118C46.19 14.9318 45.34 13.9518 44.23 13.3418L42.56 12.4318C42.03 12.1418 42.03 11.3818 42.56 11.0918L44.23 10.1818C45.34 9.57181 46.19 8.59181 46.63 7.41181L47.75 4.41181C48 3.75181 48.93 3.75181 49.18 4.41181Z" fill="white"/>
<path id="Vector_14" d="M48.46 20.6218C47.72 20.6218 47.07 20.1718 46.81 19.4718L45.69 16.4718C45.33 15.5118 44.64 14.7218 43.75 14.2318L42.08 13.3218C41.52 13.0118 41.16 12.4218 41.16 11.7818C41.16 11.1318 41.51 10.5418 42.08 10.2318L43.75 9.32182C44.64 8.83182 45.33 8.03182 45.69 7.08182L46.81 4.08182C47.07 3.38182 47.72 2.93182 48.46 2.93182C49.2 2.93182 49.85 3.38182 50.11 4.08182L51.23 7.08182C51.59 8.04182 52.28 8.83182 53.17 9.32182L54.84 10.2318C55.41 10.5418 55.76 11.1318 55.76 11.7818C55.76 12.4218 55.41 13.0218 54.84 13.3318L53.17 14.2418C52.27 14.7318 51.59 15.5318 51.23 16.4818L50.11 19.4818C49.85 20.1818 49.2 20.6318 48.46 20.6318V20.6218ZM43.42 11.7618L44.71 12.4718C46.03 13.1918 47.04 14.3618 47.57 15.7718L48.47 18.1818L49.37 15.7718C49.89 14.3618 50.91 13.1918 52.23 12.4718L53.52 11.7718L52.23 11.0718C50.91 10.3518 49.9 9.18182 49.37 7.77182L48.47 5.36182L47.57 7.77182C47.05 9.18182 46.03 10.3518 44.71 11.0718L43.42 11.7718V11.7618Z" fill="#13706D"/>
<path id="Vector_15" d="M55.29 34.3618L56.13 36.6018C56.46 37.4818 57.09 38.2218 57.92 38.6718L59.16 39.3518C59.56 39.5718 59.56 40.1318 59.16 40.3518L57.92 41.0318C57.09 41.4818 56.46 42.2218 56.13 43.1018L55.29 45.3418C55.11 45.8318 54.41 45.8318 54.22 45.3418L53.38 43.1018C53.05 42.2218 52.42 41.4818 51.59 41.0318L50.35 40.3518C49.95 40.1318 49.95 39.5718 50.35 39.3518L51.59 38.6718C52.42 38.2218 53.05 37.4818 53.38 36.6018L54.22 34.3618C54.4 33.8718 55.1 33.8718 55.29 34.3618Z" fill="white"/>
<path id="Vector_16" d="M54.76 46.7118C54.1 46.7118 53.52 46.3118 53.29 45.6918L52.45 43.4518C52.21 42.7918 51.73 42.2518 51.12 41.9118L49.88 41.2318C49.38 40.9618 49.06 40.4318 49.06 39.8518C49.06 39.2718 49.37 38.7518 49.88 38.4718L51.12 37.7918C51.73 37.4518 52.21 36.9118 52.45 36.2518L53.29 34.0118C53.52 33.3918 54.1 32.9918 54.76 32.9918C55.42 32.9918 56 33.3918 56.23 34.0118L57.07 36.2518C57.31 36.9118 57.79 37.4518 58.4 37.7918L59.64 38.4718C60.14 38.7418 60.46 39.2718 60.46 39.8518C60.46 40.4318 60.15 40.9518 59.64 41.2318L58.4 41.9118C57.79 42.2518 57.31 42.7918 57.07 43.4518L56.23 45.6918C56 46.3118 55.42 46.7118 54.76 46.7118ZM51.53 39.8518L52.08 40.1518C53.12 40.7218 53.91 41.6418 54.33 42.7418L54.76 43.9018L55.19 42.7418C55.6 41.6318 56.4 40.7118 57.44 40.1518L57.99 39.8518L57.44 39.5518C56.4 38.9818 55.61 38.0618 55.19 36.9618L54.76 35.8018L54.33 36.9618C53.92 38.0718 53.12 38.9918 52.08 39.5518L51.53 39.8518Z" fill="#13706D"/>
</g>
</svg>

<svg xmlns="http://www.w3.org/2000/svg" width="89" height="89" fill="none"><path fill="#fff" d="M73.53 16.002H15.04a3.83 3.83 0 0 0-3.83 3.83v58.49a3.83 3.83 0 0 0 3.83 3.83h58.49a3.83 3.83 0 0 0 3.83-3.83v-58.49a3.83 3.83 0 0 0-3.83-3.83"/><path fill="#13706D" d="M73.53 83.162H15.04c-2.67 0-4.83-2.17-4.83-4.83v-58.49c0-2.67 2.17-4.83 4.83-4.83h58.48c2.67 0 4.83 2.17 4.83 4.83v58.48c0 2.67-2.17 4.83-4.83 4.83zm-58.49-66.16c-1.56 0-2.83 1.27-2.83 2.83v58.48c0 1.56 1.27 2.83 2.83 2.83h58.48c1.56 0 2.83-1.27 2.83-2.83v-58.47c0-1.56-1.27-2.83-2.83-2.83H15.04z"/><path fill="#AFE0DD" d="M65.17 23.442H23.55a4.11 4.11 0 0 0-4.11 4.11v19.19a4.11 4.11 0 0 0 4.11 4.11h41.62a4.11 4.11 0 0 0 4.11-4.11v-19.19a4.11 4.11 0 0 0-4.11-4.11"/><path fill="#13706D" d="M65.16 51.852H23.55c-2.82 0-5.11-2.29-5.11-5.11v-19.18c0-2.82 2.29-5.11 5.11-5.11h41.61c2.82 0 5.11 2.29 5.11 5.11v19.18c0 2.82-2.29 5.11-5.11 5.11m-41.61-27.41c-1.72 0-3.11 1.4-3.11 3.11v19.18c0 1.72 1.4 3.11 3.11 3.11h41.61c1.72 0 3.11-1.4 3.11-3.11v-19.18c0-1.72-1.4-3.11-3.11-3.11z"/><path fill="#AFE0DD" d="M68.8 62.882H19.89c-.9 0-1.63.73-1.63 1.63v.01c0 .9.73 1.63 1.63 1.63H68.8c.9 0 1.63-.73 1.63-1.63v-.01c0-.9-.73-1.63-1.63-1.63m0-6.21H19.89c-.9 0-1.63.73-1.63 1.63v.01c0 .9.73 1.63 1.63 1.63H68.8c.9 0 1.63-.73 1.63-1.63v-.01c0-.9-.73-1.63-1.63-1.63m-18.62 12.43H19.89c-.9 0-1.63.73-1.63 1.63v.01c0 .9.73 1.63 1.63 1.63h30.29c.9 0 1.63-.73 1.63-1.63v-.01c0-.9-.73-1.63-1.63-1.63"/><path fill="#13706D" d="M23.49 23.442h16.02v10.89c0 1.8-1.46 3.25-3.25 3.25H20.44v-11.09a3.05 3.05 0 0 1 3.05-3.05"/><path fill="#fff" d="m36.23 32.322-2.74-2.89a.99.99 0 0 0-1.44 0l-.53.55-2.2-2.31a1 1 0 0 0-.72-.31c-.25-.02-.54.11-.73.32l-4.15 4.44c-.38.4-.36 1.04.05 1.41.19.18.44.27.68.27.27 0 .53-.11.73-.32l3.43-3.66 1.54 1.62-.84.88c-.38.4-.36 1.03.04 1.41s1.03.37 1.41-.04l2.02-2.13 2.02 2.12c.2.21.46.31.72.31.25 0 .5-.09.69-.28.4-.38.42-1.01.04-1.41zm-1.61-3.51a1.35 1.35 0 1 1 .001-2.702 1.35 1.35 0 0 1-.001 2.702m35.61-19.65 1.6 10.43a5.1 5.1 0 0 0 4.01 4.21l7.16 1.45c1.04.21 1.04 1.69 0 1.9l-7.16 1.45c-2.09.42-3.69 2.1-4.01 4.21l-1.6 10.43c-.17 1.1-1.75 1.1-1.92 0l-1.6-10.43a5.1 5.1 0 0 0-4.01-4.21l-7.16-1.45c-1.04-.21-1.04-1.69 0-1.9l7.16-1.45c2.09-.42 3.69-2.1 4.01-4.21l1.6-10.43c.17-1.1 1.75-1.1 1.92 0"/><path fill="#13706D" d="M69.27 45.052c-1 0-1.8-.69-1.95-1.67l-1.6-10.43a4.1 4.1 0 0 0-3.22-3.38l-7.16-1.45c-.93-.19-1.58-.98-1.58-1.93s.65-1.74 1.58-1.93l7.16-1.45a4.1 4.1 0 0 0 3.22-3.38l1.6-10.43c.15-.98.95-1.67 1.95-1.67s1.8.69 1.95 1.67l1.6 10.43a4.1 4.1 0 0 0 3.22 3.38l7.16 1.45c.93.19 1.58.98 1.58 1.93s-.65 1.74-1.58 1.93l-7.16 1.45a4.1 4.1 0 0 0-3.22 3.38l-1.6 10.43c-.15.98-.95 1.67-1.95 1.67m-.03-35.75-1.54 10.44a6.1 6.1 0 0 1-4.8 5.03l-7.16 1.45 7.16 1.39c2.49.5 4.42 2.53 4.8 5.03l1.6 10.43 1.55-10.43a6.1 6.1 0 0 1 4.8-5.03l7.16-1.45-7.16-1.39a6.09 6.09 0 0 1-4.8-5.03l-1.6-10.43v-.02z"/><path fill="#fff" d="m49.18 4.412 1.12 3a5.26 5.26 0 0 0 2.4 2.77l1.67.91c.53.29.53 1.05 0 1.34l-1.67.91a5.26 5.26 0 0 0-2.4 2.77l-1.12 3a.764.764 0 0 1-1.43 0l-1.12-3a5.26 5.26 0 0 0-2.4-2.77l-1.67-.91a.763.763 0 0 1 0-1.34l1.67-.91a5.26 5.26 0 0 0 2.4-2.77l1.12-3a.764.764 0 0 1 1.43 0"/><path fill="#13706D" d="M48.46 20.622c-.74 0-1.39-.45-1.65-1.15l-1.12-3a4.26 4.26 0 0 0-1.94-2.24l-1.67-.91a1.756 1.756 0 0 1 0-3.09l1.67-.91c.89-.49 1.58-1.29 1.94-2.24l1.12-3c.26-.7.91-1.15 1.65-1.15s1.39.45 1.65 1.15l1.12 3c.36.96 1.05 1.75 1.94 2.24l1.67.91a1.768 1.768 0 0 1 0 3.1l-1.67.91a4.26 4.26 0 0 0-1.94 2.24l-1.12 3c-.26.7-.91 1.15-1.65 1.15zm-5.04-8.86 1.29.71c1.32.72 2.33 1.89 2.86 3.3l.9 2.41.9-2.41a6.22 6.22 0 0 1 2.86-3.3l1.29-.7-1.29-.7a6.26 6.26 0 0 1-2.86-3.3l-.9-2.41-.9 2.41a6.22 6.22 0 0 1-2.86 3.3l-1.29.7z"/><path fill="#fff" d="m55.29 34.362.84 2.24c.33.88.96 1.62 1.79 2.07l1.24.68c.4.22.4.78 0 1l-1.24.68c-.83.45-1.46 1.19-1.79 2.07l-.84 2.24c-.18.49-.88.49-1.07 0l-.84-2.24c-.33-.88-.96-1.62-1.79-2.07l-1.24-.68c-.4-.22-.4-.78 0-1l1.24-.68c.83-.45 1.46-1.19 1.79-2.07l.84-2.24c.18-.49.88-.49 1.07 0"/><path fill="#13706D" d="M54.76 46.712c-.66 0-1.24-.4-1.47-1.02l-.84-2.24c-.24-.66-.72-1.2-1.33-1.54l-1.24-.68a1.57 1.57 0 0 1 0-2.76l1.24-.68c.61-.34 1.09-.88 1.33-1.54l.84-2.24c.23-.62.81-1.02 1.47-1.02s1.24.4 1.47 1.02l.84 2.24c.24.66.72 1.2 1.33 1.54l1.24.68a1.57 1.57 0 0 1 0 2.76l-1.24.68c-.61.34-1.09.88-1.33 1.54l-.84 2.24c-.23.62-.81 1.02-1.47 1.02m-3.23-6.86.55.3c1.04.57 1.83 1.49 2.25 2.59l.43 1.16.43-1.16a4.85 4.85 0 0 1 2.25-2.59l.55-.3-.55-.3a4.96 4.96 0 0 1-2.25-2.59l-.43-1.16-.43 1.16a4.85 4.85 0 0 1-2.25 2.59z"/></svg>
